X: 28328
T: Mug Of Brown Ale, The
R: jig
M: 6/8
K: Adorian
g/f/|:eAA fAA|~g3 age|dBG GAG|~B3 Bcd|
eAA fAA|~g3 age|dBd gdB|ABA ABd:|
efg ~a3|aba age|dBd ~g3|gba ged|
efg ~g3|aba age|dBd gdB|ABA ABd|
efg ~a3|aba age|dBd ~g3|gba ged|
efg a2b|^c'ac' age|dBd gdB|ABA A2||

